X: 9
T: Lorayne Alman
T: for couples
C: Pierre Phalese (1571)
N: 
K: G major
M: 4/4
L: 1/8
P: A
 |: "G"G3A BABc | "Dm"d4 d2cB | "F"A2"G"B2 "C"c2"Dm"d2 | "G"B4 "C"G4 :: \
P: B
"G"G3A B2AG | "D"A4 A4 | 
"G"G3A B2AG | "D"A4 A4 | "G"G3A BABc | "D"d4 d3c | "G"B2"C"AG "D"FEGF | "G"G4 G4 :| 


